src/topics/icons/new-relic.svg

<svg height="208" preserveAspectRatio="xMidYMid" viewBox="0 0 256 208" width="256" xmlns="http://www.w3.org/2000/svg"><g transform="translate(-1)"><path d="m124.325988 172.739047c-38.8715712 0-70.3712719-31.508345-70.3712719-70.378789 0-38.86067 31.4997007-70.3637539 70.3712719-70.3637539 38.861045 0 70.367889 31.5030839 70.367889 70.3637539 0 38.870444-31.506844 70.378789-70.367889 70.378789zm130.791214-96.3275025c-12.006026-55.1986235-78.199491-87.6700382-147.853912-72.52407911-69.6540456 15.14445551-116.39180212 72.17185631-104.38727997 127.36784861 12.00151497 55.198247 78.19798727 87.668534 147.85240897 72.523327 69.653669-15.145959 116.388418-72.173359 104.388783-127.3670965z" fill="#37808c"/><path d="m123.997816 171.401982c-38.2158385 0-69.183645-30.976446-69.183645-69.190782 0-38.2049464 30.9678065-69.176509 69.183645-69.176509 38.205323 0 69.180266 30.9715626 69.180266 69.176509 0 38.214336-30.974943 69.190782-69.180266 69.190782zm17.528692-156.3354398c-49.6995582 0-89.9988729 40.2955587-89.9988729 89.9966198 0 49.70369 40.2993147 89.999248 89.9988729 89.999248 49.698807 0 90.001127-40.295558 90.001127-89.999248 0-49.7010611-40.30232-89.9966198-90.001127-89.9966198z" fill="#9bd3cd"/><g fill="#1b1a19" transform="translate(78 61)"><path d="m21.0163143 33.9485676-7.5480404-15.8259453c-1.8014791-3.7495294-3.6519399-7.9858843-4.2853366-9.9825424l-.1458234.1461973c.2434128 2.8244859.2923945 6.3788363.3410023 9.3495195l.1944311 16.3127709h-5.5020268v-33.6967825h6.3298547l8.1810632 16.4589681c1.5580663 3.1165065 3.0189171 7.1090748 3.4571346 8.667515l.146198-.1461973c-.146198-1.7042635-.4868261-6.5250336-.4868261-9.5929323l-.0975894-15.3873535h5.3079695v33.6967825z"/><path d="m41.661908 12.7660449c-3.019291 0-4.674573 2.3862681-4.674573 6.3792103h9.105733c0-3.9929422-1.752871-6.3792103-4.43116-6.3792103zm-4.723555 10.3235447v.38961c0 3.4085271 1.26642 7.0122331 6.086816 7.0122331 2.288679 0 4.285337-.8278279 6.135798-2.4348759l2.093873 3.2627038c-2.580699 2.1910891-5.551382 3.2623298-8.86232 3.2623298-6.963625 0-11.346177-5.015575-11.346177-12.9042438 0-4.3335705.925417-7.2070381 3.067898-9.6415401 1.996285-2.2886786 4.43116-3.3113115 7.547667-3.3113115 2.434502 0 4.674947.6330229 6.768446 2.5320914 2.142856 1.9480503 3.214096 4.9669673 3.214096 10.7131547v1.1198485z"/><path d="m80.129357 34.0457831h-5.015949l-3.018917-11.3458036c-.77922-2.9217015-1.607048-6.7198386-1.607048-6.7198386h-.097215s-.389611 2.4348759-1.607048 6.9636253l-2.970684 11.1020169h-5.015575l-6.719464-24.3962447 5.307595-.7302384 2.678289 11.9305926c.681631 3.0675248 1.266046 6.4760519 1.266046 6.4760519h.146197s.486825-3.213722 1.411869-6.622623l3.165488-11.3944114h5.258988l2.775504 11.1023908c1.022633 3.9929421 1.55844 7.0122331 1.55844 7.0122331h.146198s.584041-3.7495294 1.217064-6.6226231l2.532091-11.4920008h5.551382z"/><path d="m8.9948625 48.153256h-3.0678987v10.664547h2.8734676c2.9213276 0 4.4797678-.389984 5.5024007-1.412243.9250434-.925417 1.5094585-2.337286 1.5094585-4.090531 0-3.408901-1.8500869-5.161773-6.8174281-5.161773zm7.7910793 29.168407-2.9213275-5.21038c-2.3372864-4.139139-3.8957266-6.476425-5.7458135-8.326886-.6333968-.633023-1.1202224-.973651-2.191837-1.022259v14.559525h-5.5020268v-33.696782h10.274563c7.5476665 0 10.9561936 4.382552 10.9561936 9.641166 0 4.821144-3.1165065 9.252304-8.3754944 9.252304 1.2174379.633023 3.4571348 3.895727 5.2103801 6.719839l4.9669677 8.083473z"/><path d="m35.532467 56.139141c-3.018917 0-4.674573 2.386642-4.674573 6.37921h9.106107c0-3.992568-1.753245-6.37921-4.431534-6.37921zm-4.723555 10.323544v.38961c0 3.408528 1.26642 7.012234 6.08719 7.012234 2.288679 0 4.285337-.828202 6.135797-2.434876l2.0935 3.26233c-2.580699 2.191463-5.551008 3.263077-8.86232 3.263077-6.963625 0-11.346177-5.015575-11.346177-12.904244 0-4.334318.925417-7.207412 3.068272-9.641914 1.995911-2.288678 4.430786-3.311311 7.547293-3.311311 2.434876 0 4.674947.633397 6.76882 2.532091 2.142482 1.948051 3.213722 4.966968 3.213722 10.713155v1.119848z"/><path d="m55.545038 77.857471c-5.405185 0-5.405185-4.869752-5.405185-6.963626v-20.987717c0-3.359546-.146198-5.161773-.4872-7.206664l5.502775-1.217438c.38961 1.509458.437844 3.554724.437844 6.768446v20.890502c0 3.311312.146197 3.846745.535807 4.431534.29202.438218 1.119848.681257 1.753245.389236l.876062 3.310938c-.973651.389984-1.996284.584789-3.213348.584789"/><path d="m62.166539 77.321663v-24.250047l5.405185-.974025v25.224072zm2.678289-28.291971c-1.948051 0-3.457509-1.606674-3.457509-3.554724 0-1.996284 1.558066-3.603332 3.55435-3.603332 1.899069 0 3.506117 1.55844 3.506117 3.603332 0 1.94805-1.607048 3.554724-3.602958 3.554724z"/><path d="m82.909722 77.95506c-6.719839 0-10.469368-4.723554-10.469368-12.661205 0-8.959909 5.356577-13.245246 10.858978-13.245246 2.678289 0 4.625965.633397 6.817054 2.678663l-2.677914 3.55435c-1.460851-1.314279-2.726897-1.898695-4.13914-1.898695-1.704263 0-3.116506.876436-3.895726 2.483484-.730239 1.509459-1.022259 3.798137-1.022259 6.865662 0 3.359919.535433 5.502775 1.655281 6.720213.77922.876435 1.947677 1.412243 3.262704 1.412243 1.704638 0 3.359919-.828202 4.966967-2.434876l2.532092 3.26233c-2.239697 2.24007-4.576984 3.263077-7.888669 3.263077"/><path d="m95.649073 72.902842c-.087494-.029164-.262482-.058329-.456913-.058329h-.29202v1.098536h.272577c.349976 0 .505521-.038886.612458-.136102.097216-.097216.155545-.243413.155545-.408305 0-.252761-.097216-.418027-.291647-.4958zm.427749 3.344216c-.155545-.27183-.223596-.379141-.379141-.670788-.398584-.729116-.524964-.933269-.670787-.991599-.038886-.019443-.077773-.029164-.126754-.029164v1.691551h-.796794v-4.054263h1.506841c.719395 0 1.195751.47673 1.195751 1.18603 0 .612832-.408305 1.108631-.904104 1.118352.077772.068051.116658.106938.16564.174989.232944.291646.971782 1.574892.971782 1.574892zm-.710048-4.899665c-1.535632 0-2.770643 1.282872-2.770643 2.897024 0 1.613778 1.235011 2.916841 2.770643 2.916841 1.53638 0 2.780739-1.303063 2.780739-2.916841 0-1.614152-1.244359-2.897024-2.780739-2.897024zm0 6.513443c-1.973102 0-3.596975-1.594335-3.596975-3.616419 0-2.012362 1.623873-3.616419 3.596975-3.616419 1.97385 0 3.597724 1.604057 3.597724 3.616419 0 2.022084-1.623874 3.616419-3.597724 3.616419z"/></g></g></svg>

<?xml version="1.0" encoding="UTF-8" standalone="no"?>
<svg width="256px" height="208px" viewBox="0 0 256 208" version="1.1" xmlns="http://www.w3.org/2000/svg" xmlns:xlink="http://www.w3.org/1999/xlink" preserveAspectRatio="xMidYMid">
	<g transform="translate(-1.000000, 0.000000)">
		<path d="M124.325988,172.739047 C85.4544168,172.739047 53.9547161,141.230702 53.9547161,102.360258 C53.9547161,63.499588 85.4544168,31.9965041 124.325988,31.9965041 C163.187033,31.9965041 194.693877,63.499588 194.693877,102.360258 C194.693877,141.230702 163.187033,172.739047 124.325988,172.739047 L124.325988,172.739047 L124.325988,172.739047 Z M255.117202,76.4115445 C243.111176,21.212921 176.917711,-11.2584937 107.26329,3.88746539 C37.6092444,19.0319209 -9.12851212,76.0593217 2.87601003,131.255314 C14.877525,186.453561 81.0739973,218.923848 150.728419,203.778641 C220.382088,188.632682 267.116837,131.605282 255.117202,76.4115445 L255.117202,76.4115445 L255.117202,76.4115445 Z" fill="#37808C"></path>
		<path d="M123.997816,171.401982 C85.7819775,171.401982 54.814171,140.425536 54.814171,102.2112 C54.814171,64.0062536 85.7819775,33.034691 123.997816,33.034691 C162.203139,33.034691 193.178082,64.0062536 193.178082,102.2112 C193.178082,140.425536 162.203139,171.401982 123.997816,171.401982 L123.997816,171.401982 L123.997816,171.401982 Z M141.526508,15.0665422 C91.8269498,15.0665422 51.5276351,55.3621009 51.5276351,105.063162 C51.5276351,154.766852 91.8269498,195.06241 141.526508,195.06241 C191.225315,195.06241 231.527635,154.766852 231.527635,105.063162 C231.527635,55.3621009 191.225315,15.0665422 141.526508,15.0665422 L141.526508,15.0665422 L141.526508,15.0665422 Z" fill="#9BD3CD"></path>
		<g transform="translate(78.000000, 61.000000)" fill="#1B1A19">
			<path d="M21.0163143,33.9485676 L13.4682739,18.1226223 C11.6667948,14.3730929 9.816334,10.136738 9.1829373,8.1400799 L9.0371139,8.2862772 C9.2805267,11.1107631 9.3295084,14.6651135 9.3781162,17.6357967 L9.5725473,33.9485676 L4.0705205,33.9485676 L4.0705205,0.2517851 L10.4003752,0.2517851 L18.5814384,16.7107532 C20.1395047,19.8272597 21.6003555,23.819828 22.038573,25.3782682 L22.184771,25.2320709 C22.038573,23.5278074 21.6979449,18.7070373 21.6979449,15.6391386 L21.6003555,0.2517851 L26.908325,0.2517851 L26.908325,33.9485676 L21.0163143,33.9485676"></path>
			<path d="M41.661908,12.7660449 C38.642617,12.7660449 36.987335,15.152313 36.987335,19.1452552 L46.093068,19.1452552 C46.093068,15.152313 44.340197,12.7660449 41.661908,12.7660449 L41.661908,12.7660449 L41.661908,12.7660449 Z M36.938353,23.0895896 L36.938353,23.4791996 C36.938353,26.8877267 38.204773,30.4914327 43.025169,30.4914327 C45.313848,30.4914327 47.310506,29.6636048 49.160967,28.0565568 L51.25484,31.3192606 C48.674141,33.5103497 45.703458,34.5815904 42.39252,34.5815904 C35.428895,34.5815904 31.046343,29.5660154 31.046343,21.6773466 C31.046343,17.3437761 31.97176,14.4703085 34.114241,12.0358065 C36.110526,9.7471279 38.545401,8.724495 41.661908,8.724495 C44.09641,8.724495 46.336855,9.3575179 48.430354,11.2565864 C50.57321,13.2046367 51.64445,16.2235537 51.64445,21.9697411 L51.64445,23.0895896 L36.938353,23.0895896 L36.938353,23.0895896 Z"></path>
			<path d="M80.129357,34.0457831 L75.113408,34.0457831 L72.094491,22.6999795 C71.315271,19.778278 70.487443,15.9801409 70.487443,15.9801409 L70.390228,15.9801409 C70.390228,15.9801409 70.000617,18.4150168 68.78318,22.9437662 L65.812496,34.0457831 L60.796921,34.0457831 L54.077457,9.6495384 L59.385052,8.9193 L62.063341,20.8498926 C62.744972,23.9174174 63.329387,27.3259445 63.329387,27.3259445 L63.475584,27.3259445 C63.475584,27.3259445 63.962409,24.1122225 64.887453,20.7033215 L68.052941,9.3089101 L73.311929,9.3089101 L76.087433,20.4113009 C77.110066,24.404243 77.645873,27.423534 77.645873,27.423534 L77.792071,27.423534 C77.792071,27.423534 78.376112,23.6740046 79.009135,20.8009109 L81.541226,9.3089101 L87.092608,9.3089101 L80.129357,34.0457831"></path>
			<path d="M8.9948625,48.153256 L5.9269638,48.153256 L5.9269638,58.817803 L8.8004314,58.817803 C11.721759,58.817803 13.2801992,58.427819 14.3028321,57.40556 C15.2278755,56.480143 15.8122906,55.068274 15.8122906,53.315029 C15.8122906,49.906128 13.9622037,48.153256 8.9948625,48.153256 L8.9948625,48.153256 L8.9948625,48.153256 Z M16.7859418,77.321663 L13.8646143,72.111283 C11.5273279,67.972144 9.9688877,65.634858 8.1188008,63.784397 C7.485404,63.151374 6.9985784,62.810746 5.9269638,62.762138 L5.9269638,77.321663 L0.424937,77.321663 L0.424937,43.624881 L10.6995,43.624881 C18.2471665,43.624881 21.6556936,48.007433 21.6556936,53.266047 C21.6556936,58.087191 18.5391871,62.518351 13.2801992,62.518351 C14.4976371,63.151374 16.737334,66.414078 18.4905793,69.23819 L23.457547,77.321663 L16.7859418,77.321663 L16.7859418,77.321663 Z"></path>
			<path d="M35.532467,56.139141 C32.51355,56.139141 30.857894,58.525783 30.857894,62.518351 L39.964001,62.518351 C39.964001,58.525783 38.210756,56.139141 35.532467,56.139141 L35.532467,56.139141 L35.532467,56.139141 Z M30.808912,66.462685 L30.808912,66.852295 C30.808912,70.260823 32.075332,73.864529 36.896102,73.864529 C39.184781,73.864529 41.181439,73.036327 43.031899,71.429653 L45.125399,74.691983 C42.5447,76.883446 39.574391,77.95506 36.263079,77.95506 C29.299454,77.95506 24.916902,72.939485 24.916902,65.050816 C24.916902,60.716498 25.842319,57.843404 27.985174,55.408902 C29.981085,53.120224 32.41596,52.097591 35.532467,52.097591 C37.967343,52.097591 40.207414,52.730988 42.301287,54.629682 C44.443769,56.577733 45.515009,59.59665 45.515009,65.342837 L45.515009,66.462685 L30.808912,66.462685 L30.808912,66.462685 Z"></path>
			<path d="M55.545038,77.857471 C50.139853,77.857471 50.139853,72.987719 50.139853,70.893845 L50.139853,49.906128 C50.139853,46.546582 49.993655,44.744355 49.652653,42.699464 L55.155428,41.482026 C55.545038,42.991484 55.593272,45.03675 55.593272,48.250472 L55.593272,69.140974 C55.593272,72.452286 55.739469,72.987719 56.129079,73.572508 C56.421099,74.010726 57.248927,74.253765 57.882324,73.961744 L58.758386,77.272682 C57.784735,77.662666 56.762102,77.857471 55.545038,77.857471"></path>
			<path d="M62.166539,77.321663 L62.166539,53.071616 L67.571724,52.097591 L67.571724,77.321663 L62.166539,77.321663 L62.166539,77.321663 Z M64.844828,49.029692 C62.896777,49.029692 61.387319,47.423018 61.387319,45.474968 C61.387319,43.478684 62.945385,41.871636 64.941669,41.871636 C66.840738,41.871636 68.447786,43.430076 68.447786,45.474968 C68.447786,47.423018 66.840738,49.029692 64.844828,49.029692 L64.844828,49.029692 L64.844828,49.029692 Z"></path>
			<path d="M82.909722,77.95506 C76.189883,77.95506 72.440354,73.231506 72.440354,65.293855 C72.440354,56.333946 77.796931,52.048609 83.299332,52.048609 C85.977621,52.048609 87.925297,52.682006 90.116386,54.727272 L87.438472,58.281622 C85.977621,56.967343 84.711575,56.382927 83.299332,56.382927 C81.595069,56.382927 80.182826,57.259363 79.403606,58.866411 C78.673367,60.37587 78.381347,62.664548 78.381347,65.732073 C78.381347,69.091992 78.91678,71.234848 80.036628,72.452286 C80.815848,73.328721 81.984305,73.864529 83.299332,73.864529 C85.00397,73.864529 86.659251,73.036327 88.266299,71.429653 L90.798391,74.691983 C88.558694,76.932053 86.221407,77.95506 82.909722,77.95506"></path>
			<path d="M95.649073,72.902842 C95.561579,72.873678 95.386591,72.844513 95.19216,72.844513 L94.90014,72.844513 L94.90014,73.943049 L95.172717,73.943049 C95.522693,73.943049 95.678238,73.904163 95.785175,73.806947 C95.882391,73.709731 95.94072,73.563534 95.94072,73.398642 C95.94072,73.145881 95.843504,72.980615 95.649073,72.902842 L95.649073,72.902842 L95.649073,72.902842 Z M96.076822,76.247058 C95.921277,75.975228 95.853226,75.867917 95.697681,75.57627 C95.299097,74.847154 95.172717,74.643001 95.026894,74.584671 C94.988008,74.565228 94.949121,74.555507 94.90014,74.555507 L94.90014,76.247058 L94.103346,76.247058 L94.103346,72.192795 L95.610187,72.192795 C96.329582,72.192795 96.805938,72.669525 96.805938,73.378825 C96.805938,73.991657 96.397633,74.487456 95.901834,74.497177 C95.979606,74.565228 96.018492,74.604115 96.067474,74.672166 C96.300418,74.963812 97.039256,76.247058 97.039256,76.247058 L96.076822,76.247058 L96.076822,76.247058 Z M95.366774,71.347393 C93.831142,71.347393 92.596131,72.630265 92.596131,74.244417 C92.596131,75.858195 93.831142,77.161258 95.366774,77.161258 C96.903154,77.161258 98.147513,75.858195 98.147513,74.244417 C98.147513,72.630265 96.903154,71.347393 95.366774,71.347393 L95.366774,71.347393 L95.366774,71.347393 Z M95.366774,77.860836 C93.393672,77.860836 91.769799,76.266501 91.769799,74.244417 C91.769799,72.232055 93.393672,70.627998 95.366774,70.627998 C97.340624,70.627998 98.964498,72.232055 98.964498,74.244417 C98.964498,76.266501 97.340624,77.860836 95.366774,77.860836 L95.366774,77.860836 L95.366774,77.860836 Z"></path>
		</g>
	</g>
</svg>
